packages/core/src/svgs/tokens/mono/RVN.svg

<svg width="24" height="24" viewBox="0 0 24 24" fill="none" xmlns="http://www.w3.org/2000/svg">
<path d="M11.194 18.2227L5.94556 22L9.28206 6.65762L11.194 18.2227ZM11.3064 18.195L14.4929 18.2324L9.40352 6.70475L11.3064 18.195ZM14.8025 17.9325L17.2483 8.86033L16.3201 7.73568L14.8025 17.9325ZM13.6216 3.70569L9.59097 6.42359L15.4766 4.52078L13.6216 3.70569ZM13.1155 3.70569L10.6129 3.79941L10.238 4.83034L13.1155 3.70569Z" fill="white"/>
<path d="M9.46948 6.60141L14.6429 18.1756L16.2174 7.54827L9.46948 6.60141ZM10.238 4.95193L13.4245 3.70518L9.46948 6.36685L10.238 4.95193ZM10.6504 3.63984L11.4564 2.76797L13.2933 3.57397L10.6504 3.63984ZM11.5778 2.66514L12.8434 2.08407L14.4554 3.93011L11.5778 2.66514ZM12.9274 2H14.277L15.0267 2.81509L12.9274 2ZM14.7456 4.05221L15.0642 3.08662L15.3926 4.36122L14.7456 4.05221Z" fill="white"/>
<path d="M9.69458 6.49805L16.1426 7.37902L15.5053 4.66113L9.69458 6.49805ZM15.5705 4.41745L15.1581 2.90881L18.0545 3.76141L15.5705 4.41745ZM14.9707 3.00253L14.6145 3.96813L13.115 2.19653L14.9707 3.00253Z" fill="white"/>
</svg>

<svg xmlns="http://www.w3.org/2000/svg" width="24" height="24" fill="none" viewBox="0 0 24 24">
    <path fill="#fff" d="M11.194 18.223 5.946 22 9.282 6.658zm.112-.028 3.187.037-5.09-11.527zm3.497-.262 2.445-9.073-.928-1.124zM13.622 3.706 9.59 6.424l5.886-1.903zm-.506 0-2.503.093-.375 1.031zM9.47 6.601l5.173 11.575 1.574-10.628zm.768-1.65 3.187-1.246-3.956 2.662zm.412-1.311.806-.872 1.837.806zm.928-.975 1.265-.58 1.612 1.845zM12.928 2h1.349l.75.815zm1.818 2.052.318-.965.329 1.274zM9.695 6.498l6.448.881-.638-2.718zm5.875-2.08-.412-1.51 2.897.853zm-.6-1.415-.356.965-1.499-1.771z"/>
</svg>
